contributed-vectors/doctor_ready.svg

<svg width="192" height="192" viewBox="0 0 192 192" fill="none" xmlns="http://www.w3.org/2000/svg">
<g clip-path="url(#clip0)">
<path fill-rule="evenodd" clip-rule="evenodd" d="M30 19H163C168.52 19 173 23.48 173 29V162C173 167.52 168.52 172 163 172H30C24.48 172 20 167.52 20 162V29C20 23.48 24.48 19 30 19Z" fill="#71A372"/>
<path d="M118.16 113.97C117.92 117.81 116.65 124.83 110.93 130.84C103.96 138.17 95.1402 139 91.4902 139H91.3302C82.3202 138.94 73.5902 134.32 69.0702 127.24C65.6102 121.8 64.6702 115.06 64.6602 111.93V106.8C62.7702 106.13 61.4202 104.33 61.4202 102.23C61.4202 99.54 63.5902 97.38 66.2702 97.38C68.9502 97.38 71.1202 99.55 71.1202 102.23C71.1202 104.33 69.7702 106.14 67.8802 106.8V111.94C67.8902 114.52 68.7202 120.69 71.7902 125.5C75.7302 131.68 83.4102 135.71 91.3402 135.77H91.4802C94.6902 135.77 102.47 135.04 108.58 128.62C113.5 123.44 114.66 117.4 114.9 113.98H115.03C115.68 113.97 116.4 113.97 117.18 113.97C117.53 113.97 117.86 113.97 118.16 113.97Z" fill="#F9DE81"/>
<path d="M75.9801 102.36C75.9301 105.56 74.3401 108.39 71.9101 110.12C71.0901 110.71 69.9401 110.37 69.5201 109.45C69.5201 109.44 69.5101 109.43 69.5101 109.42C69.2101 108.75 69.3901 107.93 69.9901 107.5C71.6501 106.33 72.7501 104.39 72.7501 102.21C72.7501 98.17 69.0301 94.99 64.8601 95.89C62.4501 96.41 60.5001 98.34 59.9701 100.74C59.3601 103.48 60.5201 106.03 62.5101 107.47C63.1101 107.9 63.3701 108.67 63.0701 109.35C63.0601 109.38 63.0401 109.42 63.0301 109.45C63.0101 109.49 63.0001 109.52 62.9801 109.56C62.5901 110.43 61.5001 110.72 60.7201 110.17C58.2101 108.41 56.5801 105.5 56.5801 102.22C56.5801 96.77 61.0701 92.37 66.5501 92.51C71.7701 92.65 76.0601 97.13 75.9801 102.36Z" fill="#B1B5BD"/>
<path d="M136.41 80.9L132.88 101.23C132.57 100.71 132.05 100.33 131.42 100.23C130.78 100.11 130.16 100.29 129.69 100.67L133.15 80.68C133.02 80.21 132.71 79.44 131.96 78.82C131.05 78.08 130.02 78.01 129.66 78C128.2 78.02 126.78 78.01 125.34 78C124.85 77.99 124.37 77.99 123.88 77.99C123.33 78.96 122.28 79.62 121.07 79.62C119.28 79.62 117.83 78.17 117.83 76.38C117.83 74.59 119.28 73.14 121.07 73.14C122.27 73.14 123.3 73.79 123.86 74.75C124.37 74.75 124.86 74.75 125.36 74.76C126.76 74.77 128.16 74.78 129.6 74.76H129.65C130.6 74.76 132.36 74.96 133.99 76.31C135.66 77.68 136.2 79.42 136.36 80.32C136.44 80.53 136.44 80.72 136.41 80.9Z" fill="#F9DE81"/>
<path d="M133.16 102.73L132.34 107.33C131.97 108.55 131.02 110.84 128.68 112.45C127.6 113.21 126.38 113.71 125.08 113.95L124.71 113.99C124.11 113.99 123.47 114 122.82 114C121.74 114 120.63 113.99 119.53 113.98C119.1 113.98 118.66 113.97 118.24 113.97C118.21 113.97 118.19 113.98 118.15 113.97C117.85 113.97 117.52 113.97 117.18 113.96C116.4 113.96 115.68 113.96 115.03 113.97H114.9C114.49 113.97 114.07 113.98 113.65 113.98C112.55 113.99 111.44 114 110.36 114C109.71 114 109.08 113.99 108.47 113.99L108.1 113.95C106.79 113.71 105.58 113.21 104.5 112.45C102.16 110.83 101.21 108.54 100.84 107.33L100.79 107.09L100.02 102.73C99.9201 102.19 100.03 101.66 100.3 101.23C100.61 100.71 101.13 100.33 101.76 100.23C102.4 100.11 103.02 100.29 103.49 100.67C103.89 100.97 104.17 101.44 104.27 101.98L105.03 106.21C105.25 106.91 105.79 108.09 106.98 108.92C107.51 109.29 108.1 109.55 108.74 109.69C110.26 109.71 111.97 109.69 113.62 109.68C114.4 109.67 115.16 109.67 115.9 109.66C117.01 109.66 118.27 109.67 119.59 109.68C121.24 109.69 122.95 109.71 124.47 109.69C125.11 109.55 125.7 109.29 126.23 108.92C127.43 108.09 127.97 106.91 128.18 106.21L128.94 101.98C129.04 101.44 129.32 100.99 129.71 100.67H129.72C130.18 100.29 130.81 100.11 131.45 100.23C132.08 100.34 132.59 100.72 132.91 101.23C133.15 101.66 133.26 102.19 133.16 102.73Z" fill="#B1B5BD"/>
<path d="M115.33 76.38C115.33 78.17 113.88 79.62 112.09 79.62C110.88 79.62 109.84 78.96 109.29 77.99C108.8 77.99 108.32 77.99 107.83 78C106.4 78.01 104.97 78.02 103.5 78C103.17 77.99 102.12 78.08 101.21 78.82C100.47 79.43 100.15 80.2 100.02 80.68L103.48 100.67C103.02 100.29 102.39 100.11 101.75 100.23C101.12 100.34 100.61 100.72 100.29 101.23L96.7901 80.9C96.7601 80.72 96.7701 80.52 96.8001 80.33C96.9701 79.42 97.5001 77.69 99.1701 76.32C100.83 74.95 102.64 74.77 103.55 74.77C105 74.79 106.4 74.78 107.8 74.77C108.3 74.76 108.79 74.76 109.3 74.76C109.86 73.8 110.9 73.15 112.09 73.15C113.89 73.15 115.33 74.59 115.33 76.38Z" fill="#F9DE81"/>
<path d="M116.6 71.42C121.963 71.42 126.31 67.0727 126.31 61.71C126.31 56.3473 121.963 52 116.6 52C111.237 52 106.89 56.3473 106.89 61.71C106.89 67.0727 111.237 71.42 116.6 71.42Z" fill="white"/>
<path d="M126.31 90.34H119.83V83.86H113.36V90.34H106.89V96.81H113.36V103.28H119.83V96.81H126.31V90.34Z" fill="white"/>
</g>
<defs>
<clipPath id="clip0">
<rect width="192" height="192" fill="white"/>
</clipPath>
</defs>
</svg>

<svg xmlns="http://www.w3.org/2000/svg" width="192" height="192" fill="none"><g clip-path="url(#a)"><path fill="#71A372" fill-rule="evenodd" d="M30 19h133c5.52 0 10 4.48 10 10v133c0 5.52-4.48 10-10 10H30c-5.52 0-10-4.48-10-10V29c0-5.52 4.48-10 10-10Z" clip-rule="evenodd"/><path fill="#F9DE81" d="M118.16 113.97c-.24 3.84-1.51 10.86-7.23 16.87-6.97 7.33-15.79 8.16-19.44 8.16h-.16c-9.01-.06-17.74-4.68-22.26-11.76-3.46-5.44-4.4-12.18-4.41-15.31v-5.13a4.86 4.86 0 0 1-3.24-4.57c0-2.69 2.17-4.85 4.85-4.85a4.848 4.848 0 0 1 1.61 9.42v5.14c.01 2.58.84 8.75 3.91 13.56 3.94 6.18 11.62 10.21 19.55 10.27h.14c3.21 0 10.99-.73 17.1-7.15 4.92-5.18 6.08-11.22 6.32-14.64h.13c.65-.01 1.37-.01 2.15-.01h.98Z"/><path fill="#B1B5BD" d="M75.98 102.36a9.693 9.693 0 0 1-4.07 7.76c-.82.59-1.97.25-2.39-.67 0-.01-.01-.02-.01-.03-.3-.67-.12-1.49.48-1.92a6.483 6.483 0 0 0 2.76-5.29c0-4.04-3.72-7.22-7.89-6.32-2.41.52-4.36 2.45-4.89 4.85-.61 2.74.55 5.29 2.54 6.73.6.43.86 1.2.56 1.88-.01.03-.03.07-.04.1-.02.04-.03.07-.05.11-.39.87-1.48 1.16-2.26.61a9.693 9.693 0 0 1-4.14-7.95c0-5.45 4.49-9.85 9.97-9.71 5.22.14 9.51 4.62 9.43 9.85Z"/><path fill="#F9DE81" d="m136.41 80.9-3.53 20.33c-.31-.52-.83-.9-1.46-1-.64-.12-1.26.06-1.73.44l3.46-19.99c-.13-.47-.44-1.24-1.19-1.86-.91-.74-1.94-.81-2.3-.82-1.46.02-2.88.01-4.32 0-.49-.01-.97-.01-1.46-.01a3.24 3.24 0 1 1-2.81-4.85c1.2 0 2.23.65 2.79 1.61.51 0 1 0 1.5.01 1.4.01 2.8.02 4.24 0h.05c.95 0 2.71.2 4.34 1.55a6.788 6.788 0 0 1 2.37 4.01c.08.21.08.4.05.58Z"/><path fill="#B1B5BD" d="m133.16 102.73-.82 4.6c-.37 1.22-1.32 3.51-3.66 5.12-1.08.76-2.3 1.26-3.6 1.5l-.37.04c-.6 0-1.24.01-1.89.01-1.08 0-2.19-.01-3.29-.02-.43 0-.87-.01-1.29-.01-.03 0-.05.01-.09 0-.3 0-.63 0-.97-.01-.78 0-1.5 0-2.15.01h-.13c-.41 0-.83.01-1.25.01-1.1.01-2.21.02-3.29.02-.65 0-1.28-.01-1.89-.01l-.37-.04a9.025 9.025 0 0 1-3.6-1.5c-2.34-1.62-3.29-3.91-3.66-5.12l-.05-.24-.77-4.36c-.1-.54.01-1.07.28-1.5.31-.52.83-.9 1.46-1 .64-.12 1.26.06 1.73.44.4.3.68.77.78 1.31l.76 4.23c.22.7.76 1.88 1.95 2.71.53.37 1.12.63 1.76.77 1.52.02 3.23 0 4.88-.01.78-.01 1.54-.01 2.28-.02 1.11 0 2.37.01 3.69.02 1.65.01 3.36.03 4.88.01.64-.14 1.23-.4 1.76-.77 1.2-.83 1.74-2.01 1.95-2.71l.76-4.23c.1-.54.38-.99.77-1.31h.01c.46-.38 1.09-.56 1.73-.44.63.11 1.14.49 1.46 1 .24.43.35.96.25 1.5Z"/><path fill="#F9DE81" d="M115.33 76.38a3.24 3.24 0 0 1-3.24 3.24c-1.21 0-2.25-.66-2.8-1.63-.49 0-.97 0-1.46.01-1.43.01-2.86.02-4.33 0-.33-.01-1.38.08-2.29.82-.74.61-1.06 1.38-1.19 1.86l3.46 19.99c-.46-.38-1.09-.56-1.73-.44-.63.11-1.14.49-1.46 1l-3.5-20.33c-.03-.18-.02-.38.01-.57.17-.91.7-2.64 2.37-4.01 1.66-1.37 3.47-1.55 4.38-1.55 1.45.02 2.85.01 4.25 0 .5-.01.99-.01 1.5-.01.56-.96 1.6-1.61 2.79-1.61 1.8 0 3.24 1.44 3.24 3.23Z"/><path fill="#fff" d="M116.6 71.42a9.71 9.71 0 0 0 9.71-9.71A9.71 9.71 0 0 0 116.6 52a9.71 9.71 0 0 0-9.71 9.71 9.71 9.71 0 0 0 9.71 9.71ZM126.31 90.34h-6.48v-6.48h-6.47v6.48h-6.47v6.47h6.47v6.47h6.47v-6.47h6.48v-6.47Z"/></g><defs><clipPath id="a"><path fill="#fff" d="M0 0h192v192H0z"/></clipPath></defs></svg>
